public/images/marquee/googledrive.svg

<svg xmlns="http://www.w3.org/2000/svg" fill="none" viewBox="0 0 40 35">
  <path fill="#CFD1D7" d="m3.51291 29.9968 1.71993 2.984c.35739.6282.87113 1.1218 1.47422 1.4807l6.14264-10.6794H.564453c0 .6955.178694 1.391.536087 2.0192l2.41237 4.1955ZM20.0645 11.2179 13.9218.538462c-.6031.358974-1.1168.852568-1.4742 1.480768L1.10054 21.7628c-.35082.6147-.53562 1.3108-.536087 2.0193H12.8497l7.2148-12.5642Zm13.3573 23.2436c.6031-.3589 1.1169-.8525 1.4743-1.4807l.7147-1.234 3.4176-5.9455c.3574-.6282.5361-1.3237.5361-2.0192H27.2783l2.6143 5.1602 3.5292 5.5192Z"/>
  <path fill="#CFD1D7" d="M20.0645 11.2179 26.2071.538462C25.604.179487 24.9115 0 24.1968 0h-8.2646c-.7148 0-1.4073.201923-2.0104.538462L20.0645 11.2179Zm7.2138 12.5642H12.8497L6.70706 34.4615c.6031.359 1.29554.5385 2.01031.5385H31.4115c.7148 0 1.4072-.2019 2.0103-.5385l-6.1435-10.6794Z"/>
  <path fill="#CFD1D7" d="m33.3548 11.891-5.6735-9.87177c-.3574-.6282-.8711-1.121794-1.4742-1.480768L20.0645 11.2179l7.2138 12.5642h12.2638c0-.6956-.1787-1.3911-.5361-2.0193l-5.6512-9.8718Z"/>
</svg>

<svg width="40" height="35" viewBox="0 0 40 35" fill="none" xmlns="http://www.w3.org/2000/svg">
<path d="M3.51291 29.9968L5.23284 32.9808C5.59023 33.609 6.10397 34.1026 6.70706 34.4615L12.8497 23.7821H0.564453C0.564453 24.4776 0.743147 25.1731 1.10054 25.8013L3.51291 29.9968Z" fill="#CFD1D7"/>
<path d="M20.0645 11.2179L13.9218 0.538462C13.3187 0.897436 12.805 1.39103 12.4476 2.01923L1.10054 21.7628C0.74972 22.3775 0.56492 23.0736 0.564453 23.7821H12.8497L20.0645 11.2179Z" fill="#CFD1D7"/>
<path d="M33.4218 34.4615C34.0249 34.1026 34.5387 33.609 34.8961 32.9808L35.6108 31.7468L39.0284 25.8013C39.3858 25.1731 39.5645 24.4776 39.5645 23.7821H27.2783L29.8926 28.9423L33.4218 34.4615Z" fill="#CFD1D7"/>
<path d="M20.0645 11.2179L26.2071 0.538462C25.604 0.179487 24.9115 0 24.1968 0H15.9322C15.2174 0 14.5249 0.201923 13.9218 0.538462L20.0645 11.2179Z" fill="#CFD1D7"/>
<path d="M27.2783 23.7821H12.8497L6.70706 34.4615C7.31016 34.8205 8.0026 35 8.71737 35H31.4115C32.1263 35 32.8187 34.7981 33.4218 34.4615L27.2783 23.7821Z" fill="#CFD1D7"/>
<path d="M33.3548 11.891L27.6813 2.01923C27.3239 1.39103 26.8102 0.897436 26.2071 0.538462L20.0645 11.2179L27.2783 23.7821H39.5421C39.5421 23.0865 39.3634 22.391 39.006 21.7628L33.3548 11.891Z" fill="#CFD1D7"/>
</svg>
